dist/img/clients/client_5.svg

<svg width="91" height="59" viewBox="0 0 91 59" fill="none" xmlns="http://www.w3.org/2000/svg">
<g clip-path="url(#clip0_2986_18220)">
<path opacity="0.6" fill-rule="evenodd" clip-rule="evenodd" d="M45.4999 8.92221L45.7474 8.85224C33.4339 12.7517 23.6914 19.4321 23.491 24.3386C23.2765 29.5906 34.0752 30.8223 47.6045 27.0918C61.1338 23.3613 72.2786 16.0764 72.4923 10.8249C72.603 8.10382 69.7533 6.46292 65.1016 6.03101C70.7875 6.29015 74.3494 7.98134 74.3494 11.0004C74.3494 16.7548 61.4306 25.1558 45.4999 29.7641C29.5692 34.3724 16.6504 33.4391 16.6504 27.6849C16.6504 21.9306 29.5692 13.5295 45.4999 8.92272" fill="#1D1D1D"/>
<path fill-rule="evenodd" clip-rule="evenodd" d="M22.9092 39.1781L62.9028 0L59.2777 30.7981L52.6648 23.0716L22.9092 39.1781Z" fill="#1D1D1D"/>
<path d="M7.06 52.2598C7.06 53.9152 5.89281 55.5133 3.87233 55.5133H1.82222V58.7671H0V49.006H3.41589C5.90687 49.006 7.06 50.371 7.06 52.2598ZM5.23794 52.2598C5.23794 51.3442 4.52686 50.8653 3.64411 50.8653H1.82222V53.654H3.64411C4.52737 53.654 5.23794 53.073 5.23794 52.2598Z" fill="#1D1D1D"/>
<path d="M18.2802 53.885C18.2805 54.8965 17.9869 55.8854 17.4364 56.7265C16.8859 57.5677 16.1034 58.2235 15.1877 58.6108C14.272 58.9981 13.2643 59.0996 12.2921 58.9025C11.3199 58.7054 10.4268 58.2185 9.72573 57.5033C9.02471 56.7882 8.54725 55.877 8.35374 54.885C8.16024 53.893 8.25938 52.8647 8.63864 51.9302C9.01789 50.9956 9.66021 50.1969 10.4844 49.6349C11.3085 49.0729 12.2775 48.7729 13.2687 48.7729C14.5969 48.7751 15.8701 49.3144 16.8094 50.2725C17.7487 51.2307 18.2776 52.5297 18.2802 53.885ZM16.4579 53.885C16.4577 53.2415 16.2706 52.6126 15.9201 52.0776C15.5696 51.5427 15.0716 51.1258 14.489 50.8797C13.9064 50.6335 13.2653 50.5692 12.6469 50.6948C12.0284 50.8204 11.4603 51.1303 11.0145 51.5853C10.5686 52.0403 10.2649 52.62 10.1419 53.2511C10.0188 53.8822 10.0819 54.5363 10.3231 55.1309C10.5644 55.7254 10.973 56.2336 11.4972 56.5911C12.0214 56.9487 12.6378 57.1397 13.2684 57.1399C13.6875 57.1408 14.1027 57.0572 14.4901 56.8939C14.8774 56.7306 15.2294 56.4909 15.5257 56.1885C15.8221 55.8861 16.057 55.5269 16.217 55.1316C16.3769 54.7363 16.4588 54.3127 16.4579 53.885Z" fill="#1D1D1D"/>
<path d="M27.0351 56.1382L27.7321 57.824C26.8666 58.5784 25.7671 58.9954 24.6288 59.0007C21.8243 59.0007 19.5327 56.7048 19.5327 53.8869C19.5327 51.0689 21.8243 48.7748 24.6288 48.7748C25.6964 48.7748 26.9213 49.1811 27.7321 49.9366L27.0344 51.6218C26.3996 50.9875 25.546 50.633 24.6576 50.6344C22.8355 50.6344 21.3549 52.0857 21.3549 53.8869C21.3549 55.6881 22.8355 57.1418 24.6576 57.1418C25.0996 57.1458 25.5379 57.059 25.9463 56.8866C26.3548 56.7142 26.725 56.4596 27.0351 56.1382Z" fill="#1D1D1D"/>
<path d="M37.8339 58.7671H35.5276L31.9111 54.4966V58.7671H30.0894V49.006H31.9111V53.0443L35.2999 49.006H37.6063L33.5052 53.6684L37.8339 58.7671Z" fill="#1D1D1D"/>
<path d="M48.2352 53.885C48.2356 54.8965 47.9419 55.8854 47.3914 56.7267C46.8409 57.5679 46.0583 58.2236 45.1425 58.6109C44.2268 58.9982 43.2191 59.0996 42.2468 58.9024C41.2745 58.7052 40.3814 58.2182 39.6805 57.503C38.9795 56.7878 38.5021 55.8765 38.3087 54.8844C38.1153 53.8923 38.2146 52.8639 38.594 51.9294C38.9734 50.9949 39.6159 50.1962 40.4402 49.6344C41.2645 49.0725 42.2336 48.7727 43.2248 48.7729C44.5529 48.7751 45.826 49.3144 46.7651 50.2726C47.7043 51.2308 48.2329 52.5298 48.2352 53.885ZM46.4135 53.885C46.4133 53.2415 46.2261 52.6125 45.8756 52.0775C45.5251 51.5426 45.0271 51.1257 44.4444 50.8796C43.8617 50.6335 43.2206 50.5692 42.6021 50.6949C41.9837 50.8205 41.4156 51.1305 40.9697 51.5856C40.5239 52.0407 40.2203 52.6205 40.0973 53.2516C39.9744 53.8828 40.0376 54.537 40.279 55.1315C40.5203 55.726 40.9291 56.2341 41.4534 56.5916C41.9778 56.9491 42.5942 57.1399 43.2248 57.1399C43.6438 57.1406 44.0588 57.0568 44.4461 56.8935C44.8333 56.7302 45.1851 56.4904 45.4813 56.188C45.7775 55.8856 46.0123 55.5265 46.1722 55.1313C46.3321 54.7361 46.4139 54.3126 46.413 53.885H46.4135Z" fill="#1D1D1D"/>
<path d="M56.9892 56.1382L57.6869 57.8233C56.8214 58.5777 55.722 58.9946 54.5839 59C51.7793 59 49.4878 56.7042 49.4878 53.8862C49.4878 51.0683 51.7793 48.7741 54.5839 48.7741C55.6517 48.7741 56.8752 49.1805 57.6869 49.936L56.9892 51.6211C56.3544 50.9869 55.501 50.6324 54.6126 50.6338C52.7906 50.6338 51.3097 52.085 51.3097 53.8862C51.3097 55.6875 52.7906 57.1411 54.6126 57.1411C55.0544 57.1451 55.4925 57.0583 55.9008 56.886C56.309 56.7137 56.6792 56.4594 56.9892 56.1382Z" fill="#1D1D1D"/>
<path d="M70.5504 58.7671H68.6142L67.8173 52.3759L65.3128 58.7671H64.4019L61.8962 52.3759L61.0989 58.7671H59.1626L60.5294 49.006H62.3513L64.857 55.2815L67.3627 49.006H69.1847L70.5504 58.7671Z" fill="#1D1D1D"/>
<path d="M81.5472 53.885C81.5476 54.8965 81.254 55.8854 80.7035 56.7265C80.153 57.5677 79.3705 58.2235 78.4548 58.6108C77.5391 58.9981 76.5314 59.0996 75.5592 58.9025C74.587 58.7054 73.6939 58.2185 72.9928 57.5033C72.2918 56.7882 71.8143 55.877 71.6208 54.885C71.4273 53.893 71.5265 52.8647 71.9057 51.9302C72.285 50.9956 72.9273 50.1969 73.7515 49.6349C74.5756 49.0729 75.5446 48.7729 76.5358 48.7729C77.8641 48.7748 79.1374 49.3139 80.0768 50.2722C81.0162 51.2304 81.545 52.5296 81.5472 53.885ZM79.7252 53.885C79.725 53.2415 79.5378 52.6125 79.1873 52.0775C78.8368 51.5426 78.3387 51.1257 77.7561 50.8796C77.1734 50.6335 76.5323 50.5692 75.9138 50.6949C75.2953 50.8205 74.7273 51.1305 74.2814 51.5856C73.8356 52.0407 73.532 52.6205 73.409 53.2516C73.2861 53.8828 73.3493 54.537 73.5906 55.1315C73.832 55.726 74.2407 56.2341 74.7651 56.5916C75.2894 56.9491 75.9059 57.1399 76.5365 57.1399C76.9556 57.1407 77.3706 57.057 77.7579 56.8937C78.1452 56.7304 78.4971 56.4907 78.7934 56.1883C79.0897 55.8858 79.3245 55.5267 79.4845 55.1315C79.6444 54.7362 79.7262 54.3126 79.7254 53.885H79.7252Z" fill="#1D1D1D"/>
<path d="M90.3025 56.1382L91.0002 57.8233C90.1347 58.5777 89.0351 58.9946 87.8969 59C85.0928 59 82.8008 56.7042 82.8008 53.8862C82.8008 51.0683 85.0925 48.7741 87.8969 48.7741C88.965 48.7741 90.1884 49.1805 91.0002 49.936L90.3025 51.6211C89.6676 50.9868 88.8141 50.6323 87.9256 50.6338C86.1036 50.6338 84.6232 52.085 84.6232 53.8862C84.6232 55.6875 86.1036 57.1411 87.9256 57.1411C88.3675 57.145 88.8056 57.0583 89.2139 56.886C89.6222 56.7137 89.9924 56.4594 90.3025 56.1382Z" fill="#1D1D1D"/>
</g>
<defs>
<clipPath id="clip0_2986_18220">
<rect width="91" height="59" fill="white"/>
</clipPath>
</defs>
</svg>

<svg width="91" height="59" viewBox="0 0 91 59" fill="none" xmlns="http://www.w3.org/2000/svg"><g clip-path="url(#clip0_2986_18220)" fill="#1D1D1D"><path opacity=".6" fill-rule="evenodd" clip-rule="evenodd" d="M45.5 8.922l.247-.07c-12.313 3.9-22.056 10.58-22.256 15.487-.215 5.252 10.584 6.483 24.114 2.753 13.529-3.73 24.674-11.016 24.887-16.267.111-2.721-2.739-4.362-7.39-4.794 5.685.26 9.247 1.95 9.247 4.97 0 5.754-12.918 14.155-28.85 18.763-15.93 4.608-28.849 3.675-28.849-2.08 0-5.753 12.92-14.155 28.85-18.761"/><path fill-rule="evenodd" clip-rule="evenodd" d="M22.91 39.178L62.902 0l-3.625 30.798-6.613-7.726-29.756 16.106z"/><path d="M7.06 52.26c0 1.655-1.167 3.253-3.188 3.253h-2.05v3.254H0v-9.761h3.416c2.49 0 3.644 1.365 3.644 3.254zm-1.822 0c0-.916-.711-1.395-1.594-1.395H1.822v2.789h1.822c.883 0 1.594-.581 1.594-1.394zm13.042 1.625c0 1.012-.293 2-.844 2.842a5.035 5.035 0 01-2.248 1.884 4.919 4.919 0 01-2.896.292 4.98 4.98 0 01-2.566-1.4 5.147 5.147 0 01-1.372-2.618 5.21 5.21 0 01.285-2.955 5.093 5.093 0 011.845-2.295 4.94 4.94 0 012.785-.862 4.97 4.97 0 013.54 1.5 5.176 5.176 0 011.471 3.612zm-1.822 0c0-.643-.187-1.272-.538-1.807a3.204 3.204 0 00-1.431-1.198 3.129 3.129 0 00-1.842-.185 3.17 3.17 0 00-1.633.89 3.274 3.274 0 00-.872 1.666 3.316 3.316 0 00.181 1.88 3.24 3.24 0 001.174 1.46 3.144 3.144 0 004.029-.403c.296-.302.531-.661.691-1.056.16-.396.242-.82.24-1.247zm10.577 2.253l.697 1.686a4.755 4.755 0 01-3.103 1.177c-2.805 0-5.096-2.296-5.096-5.114s2.291-5.112 5.096-5.112c1.067 0 2.292.406 3.103 1.162l-.698 1.685a3.355 3.355 0 00-2.376-.988c-1.823 0-3.303 1.452-3.303 3.253 0 1.801 1.48 3.255 3.303 3.255a3.24 3.24 0 001.288-.255 3.293 3.293 0 001.09-.749zm10.799 2.629h-2.306l-3.617-4.27v4.27H30.09v-9.761h1.822v4.038l3.389-4.038h2.306l-4.1 4.662 4.328 5.1zm10.401-4.882c0 1.012-.293 2-.844 2.842a5.035 5.035 0 01-2.248 1.884 4.918 4.918 0 01-2.896.291 4.98 4.98 0 01-2.566-1.399 5.147 5.147 0 01-1.372-2.619 5.211 5.211 0 01.285-2.955 5.092 5.092 0 011.846-2.295 4.94 4.94 0 012.785-.861 4.968 4.968 0 013.54 1.5 5.174 5.174 0 011.47 3.612zm-1.822 0a3.3 3.3 0 00-.537-1.807 3.203 3.203 0 00-1.432-1.198 3.13 3.13 0 00-1.842-.185 3.17 3.17 0 00-1.632.89 3.276 3.276 0 00-.873 1.667 3.316 3.316 0 00.182 1.88 3.24 3.24 0 001.174 1.46 3.143 3.143 0 004.028-.404 3.298 3.298 0 00.932-2.303zm10.577 2.253l.697 1.685A4.756 4.756 0 0154.584 59c-2.805 0-5.096-2.296-5.096-5.114s2.291-5.112 5.096-5.112c1.068 0 2.291.407 3.103 1.162l-.698 1.685a3.355 3.355 0 00-2.376-.987c-1.822 0-3.303 1.451-3.303 3.252 0 1.801 1.48 3.255 3.303 3.255.441.004.88-.083 1.288-.255a3.293 3.293 0 001.088-.748zm13.56 2.629h-1.936l-.797-6.391-2.504 6.391h-.911l-2.506-6.391-.797 6.391h-1.936l1.366-9.761h1.822l2.506 6.276 2.506-6.276h1.822l1.365 9.761zm10.997-4.882c0 1.012-.293 2-.843 2.842a5.035 5.035 0 01-2.25 1.884 4.919 4.919 0 01-2.895.292 4.98 4.98 0 01-2.566-1.4 5.147 5.147 0 01-1.372-2.618 5.211 5.211 0 01.285-2.955 5.093 5.093 0 011.845-2.295 4.94 4.94 0 012.785-.862 4.968 4.968 0 013.54 1.5 5.174 5.174 0 011.471 3.612zm-1.822 0c0-.643-.187-1.273-.538-1.807a3.204 3.204 0 00-1.43-1.198 3.13 3.13 0 00-1.843-.185 3.17 3.17 0 00-1.633.89 3.276 3.276 0 00-.872 1.667 3.317 3.317 0 00.182 1.88 3.24 3.24 0 001.174 1.46 3.143 3.143 0 004.028-.404c.297-.302.531-.661.691-1.056.16-.396.242-.82.241-1.247zm10.577 2.253L91 57.823A4.756 4.756 0 0187.897 59c-2.804 0-5.096-2.296-5.096-5.114s2.291-5.112 5.096-5.112c1.068 0 2.291.407 3.103 1.162l-.698 1.685a3.354 3.354 0 00-2.376-.987c-1.822 0-3.303 1.451-3.303 3.252 0 1.801 1.48 3.255 3.303 3.255a3.24 3.24 0 001.288-.255 3.294 3.294 0 001.088-.748z"/></g><defs><clipPath id="clip0_2986_18220"><path fill="#fff" d="M0 0h91v59H0z"/></clipPath></defs></svg>
